dist/img/icons/flower.svg

<svg width="38" height="37" viewBox="0 0 38 37" fill="none" xmlns="http://www.w3.org/2000/svg">
<path d="M34.897 25.1402C35.6489 23.1923 36.0621 21.0782 36.0621 18.8667C36.0621 16.3744 35.537 14.0025 34.5957 11.8569" stroke="#C9CDCA" stroke-width="2" stroke-miterlimit="10" stroke-linecap="round" stroke-linejoin="round"/>
<path d="M18.1932 18.2907C18.2018 18.2907 18.2133 18.2907 18.2219 18.2907C18.2247 18.2076 18.2247 18.1216 18.2276 18.0386C18.2133 18.0386 18.1989 18.0386 18.1846 18.0386C18.1903 18.1216 18.1903 18.2076 18.1932 18.2907Z" stroke="#C9CDCA" stroke-width="2" stroke-miterlimit="10" stroke-linecap="round" stroke-linejoin="round"/>
<path d="M18.2067 18.8667C18.2067 18.6719 18.2154 18.48 18.2211 18.2881C18.2125 18.2881 18.201 18.2881 18.1924 18.2881C18.1981 18.4829 18.2067 18.6748 18.2067 18.8667Z" stroke="#C9CDCA" stroke-width="2" stroke-miterlimit="10" stroke-linecap="round" stroke-linejoin="round"/>
<path d="M18.1387 18.0359C12.009 17.8898 6.65982 14.6041 3.64947 9.72275C2.14573 7.28209 1.22454 4.44611 1.08105 1.40674C4.20045 1.47262 7.12186 2.3492 9.63574 3.84167C12.8556 5.75238 15.4096 8.66284 16.8646 12.1462C16.8646 12.1462 9.68165 14.4408 5.46314 6.21931" stroke="#C9CDCA" stroke-width="2" stroke-miterlimit="10" stroke-linecap="round" stroke-linejoin="round"/>
<path d="M35.71 1.39844C32.5935 1.39844 29.6692 2.21486 27.1353 3.64144C22.0357 6.50893 18.5203 11.8515 18.2305 18.039C18.3424 18.0419 18.4514 18.0476 18.5605 18.0476C24.8653 18.0476 30.3924 14.7161 33.4716 9.72304C34.9754 7.28238 35.8965 4.4464 36.04 1.40703C35.931 1.40417 35.8191 1.39844 35.71 1.39844Z" stroke="#C9CDCA" stroke-width="2" stroke-miterlimit="10" stroke-linecap="round" stroke-linejoin="round"/>
<path d="M18.1932 18.3882C18.2018 18.3882 18.2133 18.3882 18.2219 18.3882C18.2247 18.4713 18.2247 18.5572 18.2276 18.6403C18.2133 18.6403 18.1989 18.6403 18.1846 18.6403C18.1903 18.5601 18.1903 18.4741 18.1932 18.3882Z" stroke="#C9CDCA" stroke-width="2" stroke-miterlimit="10" stroke-linecap="round" stroke-linejoin="round"/>
<path d="M18.2067 17.8125C18.2067 18.0073 18.2154 18.1992 18.2211 18.3912C18.2125 18.3912 18.201 18.3912 18.1924 18.3912C18.1981 18.1964 18.2067 18.0073 18.2067 17.8125Z" stroke="#C9CDCA" stroke-width="2" stroke-miterlimit="10" stroke-linecap="round" stroke-linejoin="round"/>
<path d="M3.64947 26.9591C2.14573 29.3998 1.22454 32.2358 1.08105 35.2751C4.20045 35.2093 7.12186 34.3327 9.63574 32.8402C14.5459 29.9269 17.9063 24.6875 18.1904 18.646C12.0377 18.772 6.66843 22.0635 3.64947 26.9591Z" stroke="#C9CDCA" stroke-width="2" stroke-miterlimit="10" stroke-linecap="round" stroke-linejoin="round"/>
<path d="M19.401 24.1606C20.8789 27.9362 23.631 31.0701 27.1349 33.041C29.6689 34.4647 32.5932 35.284 35.7097 35.284C35.8216 35.284 35.9306 35.2782 36.0397 35.2754C35.8962 32.236 34.975 29.4 33.4713 26.9594C30.3921 21.9663 24.865 18.6348 18.5602 18.6348C18.5229 18.6348 18.4855 18.6348 18.4482 18.6376" stroke="#C9CDCA" stroke-width="2" stroke-miterlimit="10" stroke-linecap="round" stroke-linejoin="round"/>
<path d="M2.16511 25.1402C1.41324 23.1923 1 21.0782 1 18.8667C1 16.3744 1.52516 14.0025 2.46643 11.8569" stroke="#C9CDCA" stroke-width="2" stroke-miterlimit="10" stroke-linecap="round" stroke-linejoin="round"/>
<path d="M11.8789 2.16304C13.8303 1.41251 15.9482 1 18.1608 1C20.6574 1 23.0336 1.52423 25.183 2.46382" stroke="#C9CDCA" stroke-width="2" stroke-miterlimit="10" stroke-linecap="round" stroke-linejoin="round"/>
<path d="M11.8789 34.8369C13.8303 35.5875 15.9482 36 18.1608 36C20.6574 36 23.0336 35.4757 25.183 34.5361" stroke="#C9CDCA" stroke-width="2" stroke-miterlimit="10" stroke-linecap="round" stroke-linejoin="round"/>
</svg>

<svg width="38" height="37" viewBox="0 0 38 37" fill="none" xmlns="http://www.w3.org/2000/svg"><path d="M34.897 25.14a17.38 17.38 0 001.165-6.273 17.41 17.41 0 00-1.466-7.01M18.193 18.29h.029c.003-.082.003-.168.006-.251h-.043c.005.083.005.169.008.252z" stroke="#C9CDCA" stroke-width="2" stroke-miterlimit="10" stroke-linecap="round" stroke-linejoin="round"/><path d="M18.207 18.867c0-.195.008-.387.014-.579h-.029c.006.195.015.387.015.579zm-.068-.831a17.493 17.493 0 01-14.49-8.313 17.377 17.377 0 01-2.568-8.316c3.12.066 6.04.942 8.555 2.435a17.538 17.538 0 017.229 8.304S9.682 14.441 5.463 6.22M35.71 1.398c-3.117 0-6.04.817-8.575 2.243-5.1 2.868-8.615 8.21-8.905 14.398.112.003.221.009.33.009 6.305 0 11.832-3.332 14.912-8.325a17.376 17.376 0 002.568-8.316c-.109-.003-.22-.009-.33-.009z" stroke="#C9CDCA" stroke-width="2" stroke-miterlimit="10" stroke-linecap="round" stroke-linejoin="round"/><path d="M18.193 18.388h.029c.003.083.003.17.006.252h-.043c.005-.08.005-.166.008-.252z" stroke="#C9CDCA" stroke-width="2" stroke-miterlimit="10" stroke-linecap="round" stroke-linejoin="round"/><path d="M18.207 17.813c0 .194.008.386.014.578h-.029c.006-.195.015-.384.015-.578zM3.65 26.96a17.377 17.377 0 00-2.569 8.315 17.43 17.43 0 008.555-2.435c4.91-2.913 8.27-8.153 8.554-14.194a17.482 17.482 0 00-14.54 8.313zm15.751-2.8a17.547 17.547 0 007.734 8.881 17.455 17.455 0 008.575 2.243c.112 0 .22-.006.33-.009a17.377 17.377 0 00-2.569-8.316c-3.079-4.993-8.606-8.324-14.91-8.324-.038 0-.076 0-.113.003M2.165 25.14A17.38 17.38 0 011 18.867c0-2.493.525-4.865 1.466-7.01m9.413-9.694A17.463 17.463 0 0118.16 1c2.496 0 4.873.524 7.022 1.464M11.879 34.837c1.951.75 4.07 1.163 6.282 1.163 2.496 0 4.873-.524 7.022-1.464" stroke="#C9CDCA" stroke-width="2" stroke-miterlimit="10" stroke-linecap="round" stroke-linejoin="round"/></svg>
